tools/download-figma-icons/icons/outlined-large/deadline.svg

<svg width="64" height="64" viewBox="0 0 64 64" fill="none" xmlns="http://www.w3.org/2000/svg">
<path fill-rule="evenodd" clip-rule="evenodd" d="M55.9996 18.9999H2.99998V11.4999C2.99998 10.1199 4.11997 8.99993 5.49996 8.99993H8.97993V10.4999C8.97993 12.9799 10.9999 14.9999 13.4799 14.9999C15.9609 14.9999 17.9799 12.9799 17.9799 10.4999V8.99993H40.9797V10.4999C40.9797 12.9799 42.9997 14.9999 45.4797 14.9999C47.9606 14.9999 49.9796 12.9799 49.9796 10.4999V8.99993H53.4996C54.8806 8.99993 55.9996 10.1199 55.9996 11.4999V18.9999ZM11.9799 4.49997C11.9799 3.66997 12.6499 2.99998 13.4799 2.99998C14.3109 2.99998 14.9799 3.66997 14.9799 4.49997V10.4999C14.9799 11.3299 14.3109 11.9999 13.4799 11.9999C12.6499 11.9999 11.9799 11.3299 11.9799 10.4999V4.49997ZM43.9797 4.49997C43.9797 3.66997 44.6497 2.99998 45.4797 2.99998C46.3106 2.99998 46.9796 3.66997 46.9796 4.49997V10.4999C46.9796 11.3299 46.3106 11.9999 45.4797 11.9999C44.6497 11.9999 43.9797 11.3299 43.9797 10.4999V4.49997ZM53.4996 5.99995H49.9796V4.49997C49.9796 2.01998 47.9606 0 45.4797 0C42.9997 0 40.9797 2.01998 40.9797 4.49997V5.99995H17.9799V4.49997C17.9799 2.01998 15.9609 0 13.4799 0C10.9999 0 8.97993 2.01998 8.97993 4.49997V5.99995H5.49996C2.47098 5.99995 0 8.46994 0 11.4999V52.4996C0 55.5296 2.47098 57.9996 5.49996 57.9996H32.6308C32.0508 57.0496 31.5608 56.0496 31.1708 54.9996H5.49996C4.11997 54.9996 2.99998 53.8796 2.99998 52.4996V21.9998H55.9996V31.5498C57.0606 32.0198 58.0606 32.5898 58.9995 33.2397V11.4999C58.9995 8.46994 56.5396 5.99995 53.4996 5.99995ZM13.9804 29.4998C13.9804 30.1898 13.7004 30.8198 13.2504 31.2698C12.8004 31.7198 12.1704 31.9998 11.4804 31.9998C10.1004 31.9998 8.98043 30.8798 8.98043 29.4998C8.98043 28.8098 9.26043 28.1798 9.71043 27.7298C10.1604 27.2798 10.7904 26.9998 11.4804 26.9998C12.1704 26.9998 12.8004 27.2798 13.2504 27.7298C13.7004 28.1798 13.9804 28.8098 13.9804 29.4998ZM25.2503 31.2698C25.7003 30.8198 25.9803 30.1898 25.9803 29.4998C25.9803 28.8098 25.7003 28.1798 25.2503 27.7298C24.8003 27.2798 24.1703 26.9998 23.4803 26.9998C22.7903 26.9998 22.1603 27.2798 21.7103 27.7298C21.2603 28.1798 20.9803 28.8098 20.9803 29.4998C20.9803 30.8798 22.1003 31.9998 23.4803 31.9998C24.1703 31.9998 24.8003 31.7198 25.2503 31.2698ZM37.9802 29.4998C37.9802 30.1898 37.7002 30.8198 37.2502 31.2698C36.8002 31.7198 36.1702 31.9998 35.4802 31.9998C34.1002 31.9998 32.9802 30.8798 32.9802 29.4998C32.9802 28.8098 33.2602 28.1798 33.7102 27.7298C34.1602 27.2798 34.7902 26.9998 35.4802 26.9998C36.1702 26.9998 36.8002 27.2798 37.2502 27.7298C37.7002 28.1798 37.9802 28.8098 37.9802 29.4998ZM49.9201 30.0198C49.9601 29.8598 49.9801 29.6798 49.9801 29.4998C49.9801 28.8098 49.7001 28.1798 49.2501 27.7298C48.8001 27.2798 48.1701 26.9998 47.4801 26.9998C46.7901 26.9998 46.1601 27.2798 45.7102 27.7298C45.2602 28.1798 44.9802 28.8098 44.9802 29.4998C44.9802 29.7698 45.0202 30.0298 45.1002 30.2698C46.2001 30.0698 47.3301 29.9598 48.4801 29.9598C48.9701 29.9598 49.4501 29.9798 49.9201 30.0198ZM13.9804 38.4997C13.9804 39.1897 13.7004 39.8197 13.2504 40.2697C12.8004 40.7197 12.1704 40.9997 11.4804 40.9997C10.1004 40.9997 8.98043 39.8797 8.98043 38.4997C8.98043 37.8097 9.26043 37.1797 9.71043 36.7297C10.1604 36.2797 10.7904 35.9997 11.4804 35.9997C12.1704 35.9997 12.8004 36.2797 13.2504 36.7297C13.7004 37.1797 13.9804 37.8097 13.9804 38.4997ZM25.2503 40.2697C25.7003 39.8197 25.9803 39.1897 25.9803 38.4997C25.9803 37.8097 25.7003 37.1797 25.2503 36.7297C24.8003 36.2797 24.1703 35.9997 23.4803 35.9997C22.7903 35.9997 22.1603 36.2797 21.7103 36.7297C21.2603 37.1797 20.9803 37.8097 20.9803 38.4997C20.9803 39.8797 22.1003 40.9997 23.4803 40.9997C24.1703 40.9997 24.8003 40.7197 25.2503 40.2697ZM13.9804 47.4996C13.9804 48.1896 13.7004 48.8196 13.2504 49.2696C12.8004 49.7196 12.1704 49.9996 11.4804 49.9996C10.1004 49.9996 8.98043 48.8796 8.98043 47.4996C8.98043 46.8096 9.26043 46.1796 9.71043 45.7297C10.1604 45.2797 10.7904 44.9997 11.4804 44.9997C12.1704 44.9997 12.8004 45.2797 13.2504 45.7297C13.7004 46.1796 13.9804 46.8096 13.9804 47.4996ZM25.2503 49.2696C25.7003 48.8196 25.9803 48.1896 25.9803 47.4996C25.9803 46.8096 25.7003 46.1796 25.2503 45.7297C24.8003 45.2797 24.1703 44.9997 23.4803 44.9997C22.7903 44.9997 22.1603 45.2797 21.7103 45.7297C21.2603 46.1796 20.9803 46.8096 20.9803 47.4996C20.9803 48.8796 22.1003 49.9996 23.4803 49.9996C24.1703 49.9996 24.8003 49.7196 25.2503 49.2696ZM48.4801 60.9995C45.3902 60.9995 42.5502 59.8695 40.3702 57.9996C39.3602 57.1396 38.5002 56.1296 37.8102 54.9996C36.6502 53.1096 35.9802 50.8796 35.9802 48.4996C35.9802 41.6097 41.5902 35.9997 48.4801 35.9997C51.3001 35.9997 53.9101 36.9397 56.0001 38.5297C57.1801 39.4197 58.2001 40.5197 59 41.7697C60.26 43.7097 60.98 46.0296 60.98 48.4996C60.98 55.3896 55.3701 60.9995 48.4801 60.9995ZM59 37.1197C58.0901 36.2797 57.0901 35.5497 56.0001 34.9497C53.7701 33.7097 51.2101 32.9997 48.4801 32.9997C39.9302 32.9997 32.9802 39.9497 32.9802 48.4996C32.9802 50.8196 33.4902 53.0196 34.4102 54.9996C34.9002 56.0696 35.5202 57.0796 36.2402 57.9996C39.0802 61.6495 43.5102 63.9995 48.4801 63.9995C57.0301 63.9995 63.98 57.0496 63.98 48.4996C63.98 44.0097 62.06 39.9597 59 37.1197ZM53.4998 55C53.8498 55 54.2108 54.87 54.4898 54.61C55.0998 54.049 55.1498 53.099 54.5908 52.49L49.9798 47.42V41.0001C49.9798 40.1701 49.3098 39.5001 48.4798 39.5001C47.6498 39.5001 46.9798 40.1701 46.9798 41.0001V48.009C46.9798 48.11 46.9898 48.21 47.0108 48.299C47.0598 48.559 47.1798 48.799 47.3698 49.009L47.4208 49.059L52.3698 54.509C52.6708 54.83 53.0698 55 53.4798 55H53.4998Z" fill="black"/>
</svg>

<svg width="64" height="64" viewBox="0 0 64 64" fill="none" xmlns="http://www.w3.org/2000/svg"><path fill-rule="evenodd" clip-rule="evenodd" d="M56 19H3v-7.5A2.5 2.5 0 0 1 5.5 9h3.48v1.5c0 2.48 2.02 4.5 4.5 4.5s4.5-2.02 4.5-4.5V9h23v1.5c0 2.48 2.02 4.5 4.5 4.5s4.5-2.02 4.5-4.5V9h3.52a2.5 2.5 0 0 1 2.5 2.5V19ZM11.98 4.5c0-.83.67-1.5 1.5-1.5s1.5.67 1.5 1.5v6c0 .83-.67 1.5-1.5 1.5s-1.5-.67-1.5-1.5v-6Zm32 0c0-.83.67-1.5 1.5-1.5s1.5.67 1.5 1.5v6c0 .83-.67 1.5-1.5 1.5s-1.5-.67-1.5-1.5v-6ZM53.5 6h-3.52V4.5c0-2.48-2.02-4.5-4.5-4.5s-4.5 2.02-4.5 4.5V6h-23V4.5c0-2.48-2.02-4.5-4.5-4.5s-4.5 2.02-4.5 4.5V6H5.5A5.51 5.51 0 0 0 0 11.5v41A5.51 5.51 0 0 0 5.5 58h27.13a17.33 17.33 0 0 1-1.46-3H5.5A2.5 2.5 0 0 1 3 52.5V22h53v9.55c1.06.47 2.06 1.04 3 1.69V11.5C59 8.47 56.54 6 53.5 6ZM13.98 29.5c0 .69-.28 1.32-.73 1.77a2.5 2.5 0 1 1 .73-1.77Zm11.27 1.77c.45-.45.73-1.08.73-1.77s-.28-1.32-.73-1.77c-.45-.45-1.08-.73-1.77-.73s-1.32.28-1.77.73a2.5 2.5 0 0 0 3.54 3.54Zm12.73-1.77c0 .69-.28 1.32-.73 1.77a2.5 2.5 0 1 1 .73-1.77Zm11.94.52c.04-.16.06-.34.06-.52 0-.69-.28-1.32-.73-1.77-.45-.45-1.08-.73-1.77-.73s-1.32.28-1.77.73c-.45.45-.73 1.08-.73 1.77 0 .27.04.53.12.77 1.1-.2 2.23-.31 3.38-.31.49 0 .97.02 1.44.06ZM13.98 38.5c0 .69-.28 1.32-.73 1.77a2.5 2.5 0 1 1 .73-1.77Zm11.27 1.77c.45-.45.73-1.08.73-1.77s-.28-1.32-.73-1.77c-.45-.45-1.08-.73-1.77-.73s-1.32.28-1.77.73a2.5 2.5 0 0 0 3.54 3.54ZM13.98 47.5c0 .69-.28 1.32-.73 1.77a2.5 2.5 0 1 1 .73-1.77Zm11.27 1.77c.45-.45.73-1.08.73-1.77s-.28-1.32-.73-1.77c-.45-.45-1.08-.73-1.77-.73s-1.32.28-1.77.73a2.5 2.5 0 0 0 3.54 3.54ZM48.48 61c-3.09 0-5.93-1.13-8.11-3-1.01-.86-1.87-1.87-2.56-3a12.396 12.396 0 0 1-1.83-6.5c0-6.89 5.61-12.5 12.5-12.5 2.82 0 5.43.94 7.52 2.53 1.18.89 2.2 1.99 3 3.24 1.26 1.94 1.98 4.26 1.98 6.73 0 6.89-5.61 12.5-12.5 12.5ZM59 37.12a15.29 15.29 0 0 0-3-2.17A15.418 15.418 0 0 0 48.48 33c-8.55 0-15.5 6.95-15.5 15.5 0 2.32.51 4.52 1.43 6.5.49 1.07 1.11 2.08 1.83 3 2.84 3.65 7.27 6 12.24 6 8.55 0 15.5-6.95 15.5-15.5 0-4.49-1.92-8.54-4.98-11.38ZM53.5 55a1.503 1.503 0 0 0 1.091-2.51l-4.611-5.07V41c0-.83-.67-1.5-1.5-1.5s-1.5.67-1.5 1.5v7.009c0 .101.01.201.03.29.05.26.17.5.36.71l.05.05 4.95 5.45c.3.321.7.491 1.11.491h.02Z" fill="currentColor"/></svg>
